assets/img/braze_icons/distribute-spacing-vertical.svg

<svg fill="none" height="24" viewBox="0 0 24 24" width="24" xmlns="http://www.w3.org/2000/svg"><g clip-rule="evenodd" fill="#801ed7" fill-rule="evenodd"><path d="m2 3c0-.55228.44772-1 1-1h18c.5523 0 1 .44772 1 1s-.4477 1-1 1h-18c-.55228 0-1-.44772-1-1z"/><path d="m2 21c0-.5523.44772-1 1-1h18c.5523 0 1 .4477 1 1s-.4477 1-1 1h-18c-.55228 0-1-.4477-1-1z"/><path d="m7.96802 8h8.06398c.4386-.00001.8171-.00002 1.1304.02135.3298.0225.6597.07201.9857.20701.735.30448 1.3191.88851 1.6235 1.62359.135.32595.1845.65585.2071.98565.0213.3133.0213.6918.0213 1.1304v.064c0 .4386 0 .8171-.0213 1.1304-.0226.3298-.0721.6597-.2071.9857-.3044.735-.8885 1.3191-1.6235 1.6235-.326.135-.6559.1845-.9857.2071-.3133.0213-.6918.0213-1.1304.0213h-8.06396c-.43866 0-.81716 0-1.13042-.0214-.32983-.0225-.65974-.072-.98567-.207-.73508-.3044-1.31911-.8885-1.62359-1.6236-.135-.3259-.18451-.6558-.20701-.9856-.02137-.3133-.02136-.6918-.02135-1.1304v-.064c-.00001-.4386-.00002-.8171.02135-1.1304.0225-.3298.07201-.6597.20701-.98565.30448-.73508.88851-1.31911 1.62359-1.62359.32593-.135.65584-.18451.98567-.20701.31326-.02137.69175-.02136 1.1304-.02135z"/></g></svg>

<svg width="24" height="24" viewBox="0 0 24 24" fill="none" xmlns="http://www.w3.org/2000/svg">
<path fill-rule="evenodd" clip-rule="evenodd" d="M2 3C2 2.44772 2.44772 2 3 2H21C21.5523 2 22 2.44772 22 3C22 3.55228 21.5523 4 21 4H3C2.44772 4 2 3.55228 2 3Z" fill="#801ED7"/>
<path fill-rule="evenodd" clip-rule="evenodd" d="M2 21C2 20.4477 2.44772 20 3 20H21C21.5523 20 22 20.4477 22 21C22 21.5523 21.5523 22 21 22H3C2.44772 22 2 21.5523 2 21Z" fill="#801ED7"/>
<path fill-rule="evenodd" clip-rule="evenodd" d="M7.96802 8L16.032 8C16.4706 7.99999 16.8491 7.99998 17.1624 8.02135C17.4922 8.04385 17.8221 8.09336 18.1481 8.22836C18.8831 8.53284 19.4672 9.11687 19.7716 9.85195C19.9066 10.1779 19.9561 10.5078 19.9787 10.8376C20 11.1509 20 11.5294 20 11.968V12.032C20 12.4706 20 12.8491 19.9787 13.1624C19.9561 13.4922 19.9066 13.8221 19.7716 14.1481C19.4672 14.8831 18.8831 15.4672 18.1481 15.7716C17.8221 15.9066 17.4922 15.9561 17.1624 15.9787C16.8491 16 16.4706 16 16.032 16H7.96804C7.52938 16 7.15088 16 6.83762 15.9786C6.50779 15.9561 6.17788 15.9066 5.85195 15.7716C5.11687 15.4672 4.53284 14.8831 4.22836 14.148C4.09336 13.8221 4.04385 13.4922 4.02135 13.1624C3.99998 12.8491 3.99999 12.4706 4 12.032V11.968C3.99999 11.5294 3.99998 11.1509 4.02135 10.8376C4.04385 10.5078 4.09336 10.1779 4.22836 9.85195C4.53284 9.11687 5.11687 8.53284 5.85195 8.22836C6.17788 8.09336 6.50779 8.04385 6.83762 8.02135C7.15088 7.99998 7.52937 7.99999 7.96802 8Z" fill="#801ED7"/>
</svg>
